frontend/src/assets/icons/phone-x.svg

<svg width="24" height="24" viewBox="0 0 24 24" fill="none" xmlns="http://www.w3.org/2000/svg">
<g id="phone-x">
<path id="Icon" d="M20.9996 3L14.9996 9M14.9996 3L20.9996 9M10.2266 13.8631C9.02506 12.6615 8.07627 11.3028 7.38028 9.85323C7.32041 9.72854 7.29048 9.66619 7.26748 9.5873C7.18576 9.30695 7.24446 8.96269 7.41447 8.72526C7.46231 8.65845 7.51947 8.60129 7.63378 8.48698C7.98338 8.13737 8.15819 7.96257 8.27247 7.78679C8.70347 7.1239 8.70347 6.26932 8.27247 5.60643C8.15819 5.43065 7.98338 5.25585 7.63378 4.90624L7.43891 4.71137C6.90747 4.17993 6.64174 3.91421 6.35636 3.76987C5.7888 3.4828 5.11854 3.4828 4.55098 3.76987C4.2656 3.91421 3.99987 4.17993 3.46843 4.71137L3.3108 4.86901C2.78117 5.39863 2.51636 5.66344 2.31411 6.02348C2.08969 6.42298 1.92833 7.04347 1.9297 7.5017C1.93092 7.91464 2.01103 8.19687 2.17124 8.76131C3.03221 11.7947 4.65668 14.6571 7.04466 17.045C9.43264 19.433 12.295 21.0575 15.3284 21.9185C15.8928 22.0787 16.1751 22.1588 16.588 22.16C17.0462 22.1614 17.6667 22 18.0662 21.7756C18.4263 21.5733 18.6911 21.3085 19.2207 20.7789L19.3783 20.6213C19.9098 20.0898 20.1755 19.8241 20.3198 19.5387C20.6069 18.9712 20.6069 18.3009 20.3198 17.7333C20.1755 17.448 19.9098 17.1822 19.3783 16.6508L19.1835 16.4559C18.8339 16.1063 18.6591 15.9315 18.4833 15.8172C17.8204 15.3862 16.9658 15.3862 16.3029 15.8172C16.1271 15.9315 15.9523 16.1063 15.6027 16.4559C15.4884 16.5702 15.4313 16.6274 15.3644 16.6752C15.127 16.8453 14.7828 16.904 14.5024 16.8222C14.4235 16.7992 14.3612 16.7693 14.2365 16.7094C12.7869 16.0134 11.4282 15.0646 10.2266 13.8631Z" stroke="black" stroke-width="2" stroke-linecap="round" stroke-linejoin="round"/>
</g>
</svg>

<svg xmlns="http://www.w3.org/2000/svg" width="24" height="24" fill="none" viewBox="0 0 24 24">
  <path stroke="#000" stroke-linecap="round" stroke-linejoin="round" stroke-width="2" d="m21 3-6 6m0-6 6 6m-10.773 4.863a14.604 14.604 0 0 1-2.847-4.01 1.698 1.698 0 0 1-.113-.266 1.046 1.046 0 0 1 .147-.862c.048-.067.105-.124.22-.238.35-.35.524-.524.638-.7a2 2 0 0 0 0-2.18c-.114-.176-.289-.351-.638-.7l-.195-.196c-.532-.531-.797-.797-1.083-.941a2 2 0 0 0-1.805 0c-.285.144-.551.41-1.083.941l-.157.158c-.53.53-.795.794-.997 1.154-.224.4-.386 1.02-.384 1.479 0 .413.081.695.241 1.26a19.038 19.038 0 0 0 4.874 8.283 19.039 19.039 0 0 0 8.283 4.873c.565.16.847.24 1.26.242a3.377 3.377 0 0 0 1.478-.384c.36-.203.625-.468 1.155-.997l.157-.158c.532-.531.797-.797.942-1.082a2 2 0 0 0 0-1.806c-.145-.285-.41-.55-.942-1.082l-.195-.195c-.35-.35-.524-.524-.7-.639a2 2 0 0 0-2.18 0c-.176.114-.35.29-.7.639-.115.114-.172.171-.239.22-.237.17-.581.228-.862.146a1.695 1.695 0 0 1-.266-.113 14.605 14.605 0 0 1-4.01-2.846Z"/>
</svg>
